svgs/unofficial/pyramorphix.svg

<svg height="500" width="500" xmlns="http://www.w3.org/2000/svg"><path d="m130 262.318 100 173.182h-200zm240 0 100 173.182h-200zm-120-207.818 100 173.182h-200zm0 369.182 100-173.182h-200z" fill-rule="evenodd"/></svg>

<svg width="500" height="500" xmlns="http://www.w3.org/2000/svg"><g fill="#000" fill-rule="evenodd"><path d="M130 262.318L230 435.5H30zM370 262.318L470 435.5H270zM250 54.5l100 173.182H150zM250 423.682L350 250.5H150z"/></g></svg>
